X:1
T:O felice Nocchiero
T:Horatio Vecchi
T:Source : Canzonette a tre voci di H.Vecchi et di G Capilupi da Modena---Venetia---Ang.Gardano---1597. Editor : André Vierendeels (02/03/17).
T:Notes : Original clefs : C1, C1, F4 Editorial accidentals above the staff Lute accompaniment non added in this edition
T:O felice Nocchiero
T:©
T:©
C:Horatio Vecchi
Z:©
%%score [ 1 2 3 ]
L:1/8
Q:1/4=100
M:2/2
K:F
V:1 treble nm="Soprano 1" snm="S 1"
V:2 treble nm="Soprano 2" snm="S 2"
V:3 bass nm="Bass" snm="B"
V:1
"^1)" d6 B2 | B4 B2 d2 | c4 c2 B2 | A2 G2 A4 | A2 d2 d3 d | c2 c2 d4- | d2 c2 B2 B2 | A8 | %8
w: O fe-|li- ce Noc-|chie- ro, che|già sco- pri-|sti, fra l'ond' i-|gnot' un al-|* tro no- vo|mon-|
w: Pic- ciol|ma no- vo|mond' ho an-|ch'io sco- per-|to, dop- po'un lun-|go sol- car|_ l'on- de d'a-|mo-|
[M:2/4] A4 ::[M:2/2] z2 d4 c2- | cB B3 B A2- | AG d4 c2 | A4 !fermata!G4 :| %13
w: do,|ha- ve-|* st'il prim' ho- nor|_ io'ha- vro'il se-|con- do.|
w: re,|que- sta'è|_ la Don- na mia|_ del mon- d'ho-|no- re.|
V:2
"^2)""^1)" B6 G2 | G4 G2 B2 | A4 A2 G2 | ^F2 G2 F4 | ^F2 A2 B3 A | G2 A2 B4- | B2 A2 G2 G2 | ^F8 | %8
w: O fe-|li- ce Noc-|chie- ro, che|già sco- pri-|sti, fra l'ond' i-|gnot' un al-|* tro no- vo|mon-|
w: Ond' io|sen- za far|guer- ra un|si bel mon-|do, mi go- do'in|pa- c'e qui-|* ni l'o- ro'a-|bon|
[M:2/4] ^F4 ::[M:2/2] B4 A3 A | G3 G F3 F | E3 E ^F2 G2- | G2 ^F2 !fermata!G4 :| %13
w: do,|ha- ve- st'il|prim' ho- nor io|v'ha- vro'il se- con-|* * do.|
w: da,|ch'al- tro non|è, che la sua|trec- ci- a bion-|* * da.|
V:3
"^3)""^1)""^4)" B,6 _E,2 | _E,4 E,2 B,,2 | F,4 F,2 G,2 | D,2 _E,2 D,4 | D,2 D,2 G,3 F, | %5
w: O fe-|li- ce Noc-|chie- ro, che|già sco- pri-|sti, fra l'ond' i-|
w: Si smar-|ri'al pri- mo'in-|con- tro à|lo scoc- ca-|re, de le Bom-|
 _E,2 F,2 B,,4- | B,,2 F,,2 G,,2 G,,2 | D,8 |[M:2/4] D,4 ::[M:2/2] G,4 F,3 F, | _E,3 E, D,3 D, | %11
w: gnot' un al-|* tro no- vo|mon-|do|ha- ve- sti|prim' ho- nor v'ha-|
w: bar- de, de|_ so- spi- ri|mie-|i,|che col- pi|tai non u- di|
 C,3 C, D,4- | D,4 !fermata!G,,4 :| %13
w: vro'il se- con-|* do.|
w: mai co- ste-|* i.|

